CalculadoraFuncional/Resources/Images/plus.svg

<svg width="512" height="512" viewBox="0 0 512 512" fill="none" xmlns="http://www.w3.org/2000/svg">
	<g clip-path="url(#clip0_79_266)">
		<path d="M256 512C323.895 512 389.01 485.029 437.019 437.019C485.029 389.01 512 323.895 512 256C512 188.105 485.029 122.99 437.019 74.9807C389.01 26.9714 323.895 0 256 0C188.105 0 122.99 26.9714 74.9807 74.9807C26.9714 122.99 0 188.105 0 256C0 323.895 26.9714 389.01 74.9807 437.019C122.99 485.029 188.105 512 256 512ZM232 344V280H168C154.7 280 144 269.3 144 256C144 242.7 154.7 232 168 232H232V168C232 154.7 242.7 144 256 144C269.3 144 280 154.7 280 168V232H344C357.3 232 368 242.7 368 256C368 269.3 357.3 280 344 280H280V344C280 357.3 269.3 368 256 368C242.7 368 232 357.3 232 344Z" fill="#68A356"/>
	</g>
	<defs>
		<clipPath id="clip0_79_266">
			<rect width="512" height="512" fill="white"/>
		</clipPath>
	</defs>
</svg>

<svg xmlns="http://www.w3.org/2000/svg" viewBox="0 0 512 512"><!--! Font Awesome Pro 6.4.2 by @fontawesome - https://fontawesome.com License - https://fontawesome.com/license (Commercial License) Copyright 2023 Fonticons, Inc. --><path d="M256 512A256 256 0 1 0 256 0a256 256 0 1 0 0 512zM232 344V280H168c-13.3 0-24-10.7-24-24s10.7-24 24-24h64V168c0-13.3 10.7-24 24-24s24 10.7 24 24v64h64c13.3 0 24 10.7 24 24s-10.7 24-24 24H280v64c0 13.3-10.7 24-24 24s-24-10.7-24-24z"/></svg>
